src/actions/16/dialog-messages.svg

<svg viewBox="0 0 16 16" xmlns="http://www.w3.org/2000/svg">
 <defs>
  <style type="text/css">.ColorScheme-Text {
        color:#2e3440;
      }</style>
 </defs>
 <path class="ColorScheme-Text" d="m2 3v8l3 3v-3h9v-8h-12zm1 1h10v6h-10v-6z" fill="currentColor"/>
</svg>

<svg xmlns="http://www.w3.org/2000/svg" viewBox="0 0 16 16">
  <defs id="defs3051">
    <style type="text/css" id="current-color-scheme">
      .ColorScheme-Text {
        color:#2e3440;
      }
      </style>
  </defs>
 <path style="fill:currentColor;fill-opacity:1;stroke:none" 
     d="M 2 3 L 2 11 L 5 14 L 5 11 L 14 11 L 14 3 L 2 3 z M 3 4 L 13 4 L 13 10 L 3 10 L 3 4 z "
     class="ColorScheme-Text"
     />
</svg>
